X: 35539
T: Running For The Ferry
R: slip jig
M: 9/8
K: Eminor
D|:E2B AFd ~B3|AGF GFD|E2B AFd Bfg|fdB AGF GFD|
E2B AFd ~B3|AGF GFD|E2A FGc BAG|Fdd Fdd FED:|
|:~G3 BAG|Add Bfg|fdB AGF|EFG AFD|
~G3 BAG|Add Bdc|BAG FED|1 DEF AFD:|2 DEF FED||

